X: 130378
T: Muskerry Slide #2
C: S.O Driscoll
Z: B.Black
M: 12/8
L: 1/8
R: slide
K: G
B2 G GFG B2 G GFG|A2 D FED F2 A A2 d|
B2 G GFG B2 G GFG|A2 D F2 A G3 G2 A :|
B2 d d^cd =c2 e efe|d2 f fef g2 d d3|
B2 d d^cd =c2 e efe|d2 f fef g3 d2 c|
B2 d d^cd =c2 e efe|d2 f fef g2 d d3|
gfg d3 efe c3|d^cd =cBA G3-G2 ||
